static/images/builder1.svg

<svg height="86" viewBox="0 0 86 86" width="86" xmlns="http://www.w3.org/2000/svg" xmlns:xlink="http://www.w3.org/1999/xlink"><linearGradient id="a" x1="0%" x2="149.460671%" y1="0%" y2="71.875%"><stop offset="0" stop-color="#00eaf8"/><stop offset="1" stop-color="#6d42ef"/></linearGradient><g fill="none" fill-rule="evenodd"><circle cx="43" cy="43" fill="#fff" r="43"/><path d="m45.3970806 46.0082915c-.3920034.2970847-.6293632.6398746-.686905.9978997-.0971018.2818496-.1402581.9369593-.1402581 1.9310502h-4.3839645c0-1.4130564.0575418-2.4833229.169029-3.184138.1114872-.7122413.4351597-1.3521159.9566321-1.9462852.5322615-.5979781 1.3774064-1.146442 2.528242-1.6682445.546647-.2209091 1.024963-.4151568 1.4169664-.5789342.3955998-.1637774.7444468-.3275549 1.024963-.5065674.298498-.1790125.5214724-.3884953.7048868-.6398746.4639306-.6094044.686905-1.5158934.686905-2.6928057 0-1.5158934-.2229744-2.5290282-.686905-3.0051253-.2805162-.3580251-.6617305-.5941693-1.193992-.68558-.5214723-.102837-1.2803046-.1637774-2.2908821-.1637774-1.1220648.0457053-1.9528242.1218809-2.4707003.239953-.5358578.102837-.9278612.3275548-1.1939919.6855799-.2697271.3999216-.4387561 1.1273981-.5214724 2.155768-.0297125.7707928-.0464457 1.4046627-.0501996 1.9016097h-4.265434c0-2.1443417.1870108-4.0307163.5394542-5.1619231.3452507-1.1159718.8811085-1.9158151 1.6111699-2.4071474.8451449-.5675078 1.7873916-.9255329 2.8123545-1.0588401 1.024963-.1485423 2.3016713-.2209091 3.8193358-.2209091 3.3733869 0 5.6067273.6665361 6.728792 2.0072257.985403 1.1921473 1.4888936 3.1079624 1.4888936 5.7893417 0 1.8434483-.2229744 3.1955643-.6581341 4.0601567-.4351597.8493574-1.0968902 1.5311286-1.9672097 2.0681662-.2805162.1790125-.7732177.4151567-1.4601227.7122414-.6905013.2856583-1.2083774.5218025-1.5464353.6855799-.338058.1637774-.6617305.3884953-.9710176.6855799zm-5.3970806 10.9917085v-5.0380654h5v5.0380654z" fill="url(#a)"/></g></svg>

<?xml version="1.0" encoding="UTF-8"?>
<svg width="86px" height="86px" viewBox="0 0 86 86" version="1.1" xmlns="http://www.w3.org/2000/svg" xmlns:xlink="http://www.w3.org/1999/xlink">
    <!-- Generator: Sketch 46.2 (44496) - http://www.bohemiancoding.com/sketch -->
    <title>ic/builder1</title>
    <desc>Created with Sketch.</desc>
    <defs>
        <linearGradient x1="0%" y1="0%" x2="149.460671%" y2="71.875%" id="linearGradient-1">
            <stop stop-color="#00EAF8" offset="0%"></stop>
            <stop stop-color="#6D42EF" offset="100%"></stop>
        </linearGradient>
    </defs>
    <g id="Page-1" stroke="none" stroke-width="1" fill="none" fill-rule="evenodd">
        <g id="Temp-Screen" transform="translate(-689.000000, -2382.000000)">
            <g id="4" transform="translate(679.000000, 2382.000000)">
                <g id="ic/builder1" transform="translate(10.000000, 0.000000)">
                    <circle id="Oval" fill="#FFFFFF" cx="43" cy="43" r="43"></circle>
                    <path d="M45.3970806,46.0082915 C45.0050772,46.3053762 44.7677174,46.6481661 44.7101756,47.0061912 C44.6130738,47.2880408 44.5699175,47.9431505 44.5699175,48.9372414 L40.185953,48.9372414 C40.185953,47.524185 40.2434948,46.4539185 40.354982,45.7531034 C40.4664692,45.0408621 40.7901417,44.4009875 41.3116141,43.8068182 C41.8438756,43.2088401 42.6890205,42.6603762 43.8398561,42.1385737 C44.3865031,41.9176646 44.8648191,41.7234169 45.2568225,41.5596395 C45.6524223,41.3958621 46.0012693,41.2320846 46.2817855,41.0530721 C46.5802835,40.8740596 46.8032579,40.6645768 46.9866723,40.4131975 C47.4506029,39.8037931 47.6735773,38.8973041 47.6735773,37.7203918 C47.6735773,36.2044984 47.4506029,35.1913636 46.9866723,34.7152665 C46.7061561,34.3572414 46.3249418,34.1210972 45.7926803,34.0296865 C45.271208,33.9268495 44.5123757,33.8659091 43.5017982,33.8659091 C42.3797334,33.9116144 41.548974,33.98779 41.0310979,34.1058621 C40.4952401,34.2086991 40.1032367,34.4334169 39.837106,34.791442 C39.5673789,35.1913636 39.3983499,35.9188401 39.3156336,36.94721 C39.2859211,37.7180028 39.2691879,38.3518727 39.265434,38.8488197 L35,38.8488197 C35,36.704478 35.1870108,34.8181034 35.5394542,33.6868966 C35.8847049,32.5709248 36.4205627,31.7710815 37.1506241,31.2797492 C37.995769,30.7122414 38.9380157,30.3542163 39.9629786,30.2209091 C40.9879416,30.0723668 42.2646499,30 43.7823144,30 C47.1557013,30 49.3890417,30.6665361 50.5111064,32.0072257 C51.4965094,33.199373 52,35.1151881 52,37.7965674 C52,39.6400157 51.7770256,40.9921317 51.3418659,41.8567241 C50.9067062,42.7060815 50.2449757,43.3878527 49.3746562,43.9248903 C49.09414,44.1039028 48.6014385,44.340047 47.9145335,44.6371317 C47.2240322,44.92279 46.7061561,45.1589342 46.3680982,45.3227116 C46.0300402,45.486489 45.7063677,45.7112069 45.3970806,46.0082915 Z M40,57 L40,51.9619346 L45,51.9619346 L45,57 L40,57 Z" id="Combined-Shape" fill="url(#linearGradient-1)"></path>
                </g>
            </g>
        </g>
    </g>
</svg>
